packages/icons/src/template-library.svg

<svg viewBox="0 0 12 13" xmlns="http://www.w3.org/2000/svg" xmlns:xlink="http://www.w3.org/1999/xlink"><clipPath id="a"><path d="m1.8 13c.2 0 .4-.3.4-.6v-11.8c0-.3-.2-.6-.4-.6h-1.4c-.2 0-.4.3-.4.6v11.7c0 .4.2.7.4.7zm8.8 0 .9-.3c.3-.1.5-.4.4-.8l-3-11.3c-.1-.3-.4-.5-.8-.4l-.9.3c-.4 0-.5.4-.5.7l3.1 11.3c.1.4.5.6.8.5zm-5 0c.2 0 .4-.3.4-.7v-11.7c0-.3-.2-.6-.4-.6h-1.4c-.2 0-.4.3-.4.6v11.7c0 .4.2.7.4.7z"/></clipPath><path clip-path="url(#a)" d="m-5-5h22v23h-22z" fill="#25a6f7"/></svg>

<svg xmlns="http://www.w3.org/2000/svg" xmlns:xlink="http://www.w3.org/1999/xlink" viewBox="0 0 12 13"><defs><path id="a" d="M1.8 13c.2 0 .4-.3.4-.6V.6C2.2.3 2 0 1.8 0H.4C.2 0 0 .3 0 .6v11.7c0 .4.2.7.4.7h1.4zm8.8 0l.9-.3c.3-.1.5-.4.4-.8L8.9.6C8.8.3 8.5.1 8.1.2l-.9.3c-.4 0-.5.4-.5.7l3.1 11.3c.1.4.5.6.8.5zm-5 0c.2 0 .4-.3.4-.7V.6c0-.3-.2-.6-.4-.6H4.2c-.2 0-.4.3-.4.6v11.7c0 .4.2.7.4.7h1.4z"/></defs><clipPath id="b"><use xlink:href="#a" overflow="visible"/></clipPath><path clip-path="url(#b)" fill="#25a6f7" d="M-5-5h22v23H-5z"/></svg>
